X:33
T: The 72nd Highlanders' Farewell To Aberdeen
R: march
M: C
L: 1/8
K: Dmaj
|: A>B | "D" A2 d2 d2 e>f | "G" g>fe<d "D" f4 | "G" g2 B2 B2 c>d     | "A" e>fe<d d>cB<A |
         "D" A2 d2 d2 e>f | "G" g>fe<d "D" f4 | "G" g2 B2 "A" c>de<c | "D" d4 d2 :|
|: f>g | "D" a2 A2 A2 =c2 | "G" B2 G2 "D" A4 | "D" A2 d2 A2 d2       | "A" e>dc<B A2 f>g |
         "D" a2 A2 A2 =c2 | "G" B2 G2 "D" A4 | "D" A2 d2 "A" f>ed<c  | "D" d4 d2 :|

